X: 2363
T: Baily View
R: hornpipe
M: 4/4
K: Gminor
(3FGA|:B2 dB eFAc|(3BcB Ac B2 fg|af=ef bc=eg|(3fgf =eg f2 ga|
bf=ef dfbf|gfed edcB|AfGe FdEc|1 (3BcB Ac Bedc:|2 (3BcB Ac B2 AB||
K:F
|:c=Bcf afef|gbeg f2 ef|g^fge ce g2|=Bdgf ecde|
fefc Acfc|dcBA BAGF|EcDB CAB,G|1 (3FGF EG F2 AB:|2 (3FGF EG F^FGA||

